dist/svgs/ecommerce.svg

<!-- Generated by IcoMoon.io -->
<svg version="1.1" xmlns="http://www.w3.org/2000/svg" width="24" height="24" viewBox="0 0 24 24">
<title>ecommerce</title>
<path d="M7 18c-1.7 0-3 1.3-3 3s1.3 3 3 3 3-1.3 3-3-1.3-3-3-3zM7 22c-0.6 0-1-0.4-1-1s0.4-1 1-1 1 0.4 1 1-0.4 1-1 1z"></path>
<path d="M19 18c-1.7 0-3 1.3-3 3s1.3 3 3 3 3-1.3 3-3-1.3-3-3-3zM19 22c-0.6 0-1-0.4-1-1s0.4-1 1-1 1 0.4 1 1-0.4 1-1 1z"></path>
<path d="M6 17h14c0.5 0 0.9-0.3 1-0.8l2-10c0-0.3 0-0.6-0.2-0.8-0.2-0.3-0.5-0.4-0.8-0.4h-16.5l-0.5-4.1c-0.1-0.5-0.5-0.9-1-0.9h-3c-0.6 0-1 0.4-1 1s0.4 1 1 1h2.1l1.9 14.1c0.1 0.5 0.5 0.9 1 0.9zM20.8 7l-1.6 8h-12.3l-1.1-8h15z"></path>
</svg>

<svg xmlns="http://www.w3.org/2000/svg" width="24" height="24" viewBox="0 0 24 24"><title>ecommerce</title><path d="M7 18c-1.7 0-3 1.3-3 3s1.3 3 3 3 3-1.3 3-3-1.3-3-3-3zm0 4c-.6 0-1-.4-1-1s.4-1 1-1 1 .4 1 1-.4 1-1 1zM19 18c-1.7 0-3 1.3-3 3s1.3 3 3 3 3-1.3 3-3-1.3-3-3-3zm0 4c-.6 0-1-.4-1-1s.4-1 1-1 1 .4 1 1-.4 1-1 1zM6 17h14c.5 0 .9-.3 1-.8l2-10c0-.3 0-.6-.2-.8-.2-.3-.5-.4-.8-.4H5.5L5 .9C4.9.4 4.5 0 4 0H1C.4 0 0 .4 0 1s.4 1 1 1h2.1L5 16.1c.1.5.5.9 1 .9zM20.8 7l-1.6 8H6.9L5.8 7h15z"/></svg>
